X:1
T:We Shall See the King
T:We Shall See the King
T:James David Vaughan 
T:James David Vaughan, 1922
T:Public Domain Courtesy of the Cyber Hymnal™
T:Public Domain Courtesy of the Cyber Hymnal™
C:James David Vaughan
Z:Public Domain
Z:Courtesy of the Cyber Hymnal™
%%score ( 1 2 ) ( 3 4 )
L:1/8
Q:1/4=100
M:4/4
K:Eb
V:1 treble 
V:2 treble 
V:3 bass 
V:4 bass 
V:1
 [B,E][B,E] | [EG][EG][GB][GB] [EG][EG][DF][DF] | E6 [B,E]2 | [EG][EG][GB][GB] [EG][EG]E[CE] | %4
w: 1.~There’s a|bless- èd time that’s com- ing, com- ing|soon, It|may be even- ing, morn- ing or at|
w: 2.~Are you|rea- dy should the Sav- ior call to-|day? Would|Je- sus say, “Well done” or “Go a-|
w: 3.~Oh, my|bro- ther, are you rea- dy for the|call? To|crown your Sav- ior King and Lord of|
 F6 B2 | [Ge][Ge][Ge][Ae] [Ge]2 [GB]2 | [Ac][GB][GB][GB] [EG]2 z2 | %7
w: noon, The|wed- ding of the bride, u-|nit- ed with the Groom,|
w: way”? My|home is for the pure, the|vile can ne- ver stay,|
w: all? The|king- doms of this world shall|soon be- fore Him fall,|
 [Ge][Ac][GB][AB] [EG]2 [EG][DF] | E6 z2 ||"^Refrain" [EG][GB][GB][GB] B2 x2 | %10
w: We shall see the King when He|comes.||
w: We shall see the King when He|comes.|We shall see the King,|
w: We shall see the King when He|comes.||
 [EG][GB][GB][GB] B2 x2 | [Ge][Ge][Ge][GB] [Ad]2 [Ac][Ac] | B6 B[AB] | %13
w: |||
w: We shall see the King,|We shall see the King when He|comes; He is|
w: |||
 ([Ge][Ge])[Ge][Ae] [Ge]2 [GB]2 | [Ac][GB][GB][GB] [EG]2 z2 | [Ge][Ac][GB][AB] [EG]2 [EG][DF] | %16
w: |||
w: com- * ing in pow’r, we’ll|hail the bless- èd hour,|We shall see the King when he|
w: |||
 E6 z2 |] %17
w: |
w: comes.|
w: |
V:2
 x2 | x8 | (E2 CC E2) x2 | x6 E x | (D2 DE F2) (AF) | x8 | x8 | x8 | E6 x2 || x4 (GFAG) | %10
 x4 (GFAG) | x8 | (B2 A4) B x | x8 | x8 | x8 | E6 x2 |] %17
V:3
 [E,G,][E,G,] | [E,B,][E,B,][E,E][E,E] [E,B,][E,B,][B,,A,][B,,A,] | (G,2 A,A, A,2) [E,G,]2 | %3
 [E,B,][E,B,][E,E][E,E] [E,B,][E,B,][C,=A,][C,A,] | (B,2 B,C D2) D2 | %5
 ([G,B,][E,B,])[E,B,][E,C] [E,B,]2 [E,E]2 | [E,E][E,E][E,E][E,E] [E,B,]2 z2 | %7
 [E,B,][E,E][E,E][A,,E] [B,,B,]2 [B,,B,][B,,A,] | [E,G,]6 z2 || %9
 [E,B,][E,E][E,E][E,E] ([E,E][B,,D][C,C][E,B,]) | [E,B,][E,E][E,E][E,E] ([E,E][B,,D][C,C][E,B,]) | %11
 [E,B,][E,B,][E,B,][E,E] [F,B,]2 [F,E][F,E] | D6 [G,B,][F,B,] | %13
 ([G,B,][E,B,])[E,B,][E,C] [E,B,]2 [E,E]2 | [E,E][E,E][E,E][E,E] [E,B,]2 z2 | %15
 [E,B,][E,E][E,E][A,,E] [B,,B,]2 [B,,B,][B,,A,] | [E,G,]6 z2 |] %17
V:4
 x2 | x8 | E,6 x2 | x8 | B,,6 (B,A,) | x8 | x8 | x8 | x8 || x8 | x8 | x8 | (B,,2 B,CB,A,) x2 | x8 | %14
 x8 | x8 | x8 |] %17

